X: 30
T:RIGODON DE BOURG EN BRESSE
M:2/4
L:1/16
Q:190
C:trad. Bresse
R:rigodon
K:C
c2|G2c2 B2d2|d2e2 c2e2|e2g2 e2f2|d2B2 cBcd|c2c2 G2c2|B2d2 d2e2|c2e2 e2g2
|e2f2 d2B2|c6:|
|:g2|gagf e2g2|gagf e2g2|a2f2 d2B2| cBcd c2g2|gagf e2g2|gagf e2g2|a2f2 d
2B2| c6:||
